X:1     %Music
T:The Maid Of Australia
B:Journal of the English Folk Dance and Song Society, Dec 1958
N: BBC Record RPL 22915 (LP)
F:http://www.folkinfo.org/songs
S:Harry Cox
Z:Peter Kennedy/Michael Bell
Q:3/8=55  %Tempo
M:6/8     %Meter
L:1/8     %
K:G
B,/C/ |DDD DB,C |[M:9/8]DB,G, G3 z2 
G/A/ |[M:6/8]BBA GFE |[M:9/8]DEC B,3 z2 
D/D/ |[M:6/8]EEE EDD |[M:9/8]DB,G, G3 z2 
G/A/ |[M:6/8](BB)A GFE |EC B,2 
C/D/ |EA,A, A,B,C |[M:9/8]E2 E D3 z2 
G/F/ |[M:6/8]EDC B,CD |GAB c2 
B/A/ |AFA DEF |G3  |]